icon/pk/locking-laptop.svg

<svg viewBox="0 0 48 48" fill="none" xmlns="http://www.w3.org/2000/svg" height="1em" width="1em">
  <path d="M24 9H11C9.34315 9 8 10.3431 8 12V33H40V28" stroke="black" stroke-width="4" stroke-linecap="round" stroke-linejoin="round"/>
  <path d="M4 33H44V35C44 38.3137 41.3137 41 38 41H10C6.68629 41 4 38.3137 4 35V33Z" fill="#2F88FF" stroke="black" stroke-width="4" stroke-linejoin="round"/>
  <rect x="30" y="13" width="12" height="8" rx="3" fill="#2F88FF" stroke="black" stroke-width="4" stroke-linejoin="round"/>
  <path d="M36 7C37.6569 7 39 8.34315 39 10L39 13L33 13L33 10C33 8.34315 34.3431 7 36 7Z" fill="#2F88FF" stroke="black" stroke-width="4" stroke-linejoin="round"/>
</svg>

<svg width="48" height="48" fill="none" xmlns="http://www.w3.org/2000/svg"><path d="M24 9H11a3 3 0 0 0-3 3v21h32v-5" stroke="#000" stroke-width="4" stroke-linecap="round" stroke-linejoin="round"/><path d="M4 33h40v2a6 6 0 0 1-6 6H10a6 6 0 0 1-6-6v-2Z" fill="#2F88FF" stroke="#000" stroke-width="4" stroke-linejoin="round"/><rect x="30" y="13" width="12" height="8" rx="3" fill="#2F88FF" stroke="#000" stroke-width="4" stroke-linejoin="round"/><path d="M36 7a3 3 0 0 1 3 3v3h-6v-3a3 3 0 0 1 3-3Z" fill="#2F88FF" stroke="#000" stroke-width="4" stroke-linejoin="round"/></svg>
